F[BALLADE
CUT[Ritter und Magd
    Es spielt' ein Graf mit seiner Magd]
CNR[bis an den hellen Morgen,]
REG[Osteuropa, UdSSR, Russland, Kreis Leningrad, Kamenka]
SRC[3, S. 15
    1926 aufgezeichnet]
KEY[Q0055G 08  C 2/4]
MEL[-5  1-5-3-5  111
    3  21-7-6  -6-5-5
    1  -4-41-4  -3-51
    1  -724-7  211 //] >>
FCT[Ballade, Betrug, Schwangerschaft, Tod, Selbstmord, Herr und Magd]
CMT[Grundton in der eingestrichenen Oktave.]
